**kern	**kern	**dynam
*part1	*part1	*part1
*staff2	*staff1	*
*I"Piano	*	*
*clefF4	*clefG2	*
*k[b-e-]	*k[b-e-]	*
*M3/8	*M3/8	*
=1	=1	=1
!	!LO:TX:b:i:t=  molto espressivo e dolce	!
(8FF	8r	pp
=	=	=
4BBB-)	4.r	.
(8FF	.	.
*	*clefF4	*
=	=	=
4BBB-)	8r	.
.	8F	.
(8FF	8F	.
=	=	=
4BBB-)	(8DL 8B-	.
.	8E- 8c	.
(8FF	8FJ) 8d	.
=	=	=
4BBB-)	(8DL 8B-	.
.	8C 8A	.
(8FF	8BB-J) 8G	.
=	=	=
4BBB-)	(8AAL 8F	.
.	8BB- 8G	.
(8FF	8CJ) 8A	.
=	=	=
4BBB-)	(8DL 8B-	.
.	8E- 8c	.
(8BB-	8FJ) 8d	.
=	=	=
*-	*-	*-
!!!system-decoration: {(s1,s2)}
